!!!!SEGMENT: pl-kk--kk-i-328--001_constanzi--beatus-vir-beatus-vir.krn
!!!cenid: 17xx:2139
!!!COM: Constanzi
!!!COM-rismID: pe50046616
!!!CDT:
!!!CNT:
!!!OPR: Beatus vir
!!!OTL: Beatus vir
!!!OMV: 001
!!!PDT:
!!!AGN: Sacred
!!!SMS-siglum: PL-Kk
!!!SMS-shelfmark: Kk.I.328
!!!SMS-shelfwork: 001-001 M
!!!SMS-variant:
!!!SMS-altvar:
!!!NIFC-rismSourceID: 1001145915
!!!NIFC-islandoraID: pl-kk:5487
!!!URL-pdf-islandora: https://repozytorium.nifc.pl/islandora/object/pl-kk%3A5487/datastream/PDF/view
!!!URL-scan: https://polish.musicsources.pl/pl/lokalizacje/galeria/rekopisy/5947 @EN{Scan on Polish Music Sources Website} @PL{Skany w portalu Dziedzictwo Muzyki Polskiej w otwartym dostępie}
!!!ONB-nifc: UWAGA: części Beatus vir: 1. Beatus vir, 2. Potens in terra, 3. Gloria et divitiae, 4. Exortum est 5. Iucundus homo, 6. In memoria, 7. Paratum cor eius, 8. Peccator videbit, 9. Gloria patri
!!!AIN: 2 alto 1 empty 1 organ 1 tenor 2 vox
!!!key:
**kern	**fba	**kern	**text	**kern	**text	**kern	**text	**kern	**text	**kern	**text	**kern	**text
*part7	*	*part6	*part6	*part5	*part5	*part4	*part4	*part3	*part3	*part2	*part2	*part1	*part1
*	*	*group2	*	*group2	*	*group2	*	*group2	*	*group1	*	*group1	*
*staff7	*	*staff6	*staff6	*staff5	*staff5	*staff4	*staff4	*staff3	*staff3	*staff2	*staff2	*staff1	*staff1
*Iorgan	*	*Iempty	*	*Itenor	*	*Ialto	*	*Ivox	*	*Ialto	*	*Ivox	*
*I"Organo	*	*I"Baſso [di Ripieno]	*	*I"Tenore [di Ripieno]	*	*I"Alto di Ripieno	*	*I"Canto di ripieno	*	*I"Alto à 2.e di Concerto	*	*I"Canto à 2.e di concerto	*
*I'org	*	*I'B rip.	*	*I'T rip.	*	*I'A rip.	*	*I'S rip.	*	*I'A conc	*	*I'S conc	*
*clefF4	*	*clefF4	*	*clefC4	*	*clefC3	*	*clefC1	*	*clefC3	*	*clefC1	*
*k[f#c#]	*	*k[f#c#]	*	*k[c#f#]	*	*k[f#c#]	*	*k[c#f#]	*	*k[f#c#]	*	*k[c#f#]	*
*D:	*	*D:	*	*D:	*	*D:	*	*D:	*	*D:	*	*D:	*
*M3/4	*	*M3/4	*	*M3/4	*	*M3/4	*	*M3/4	*	*M3/4	*	*M3/4	*
=1	=1	=1	=1	=1	=1	=1	=1	=1	=1	=1	=1	=1	=1
*all\right	*	*all\right	*	*all\right	*	*all\right	*	*all\right	*	*all\right	*	*all\right	*
*	*	*	*	*	*	*	*	*	*	*	*	*2\right	*
!	!	!	!	!	!	!	!	!LO:TX:t=P:problem=kolejność krzyżyków&colon;cc#, f#	!	!	!	!LO:TX:t=P:problem=kolejność krzyżyków&colon;cc#, f#	!
!	!	!	!	!LO:TX:b:t=59	!	!	!	!	!	!LO:TX:t=P:problem=interpretacja przednutek niejasna	!	!LO:TX:t=P:problem=interpretacja przednutek niejasna	!
!LO:TX:b:t=Beatus uir	!	!LO:TX:a:t=Tutti	!	!LO:TX:b:t=Tutti	!	!LO:TX:t=Tutti	!	!LO:TX:b:t=59	!	!	!	!	!
!LO:TX:a:t=à 2.	!	!LO:TX:b:t=59	!	!LO:TX:a:t=Tenore	!	!	!	!LO:TX:t=Tutti	!	!LO:TX:b:t=30	!	!	!
!	!	!LO:N:vis=00	!	!LO:N:vis=00	!	!LO:N:vis=00	!	!LO:N:vis=00	!	!LO:N:vis=00	!	!	!
4D\	.	0.r	.	0.r	.	0.r	.	0.r	.	0.r	.	2.dd\	Be-
!LO:TX:a:t=G.o	!	!	!	!	!	!	!	!	!	!	!	!	!
4F#\	.	.	.	.	.	.	.	.	.	.	.	.	.
4E\	.	.	.	.	.	.	.	.	.	.	.	.	.
=2	=2	=2	=2	=2	=2	=2	=2	=2	=2	=2	=2	=2	=2
4D\	.	.	.	.	.	.	.	.	.	.	.	(4dd\	-a-
4r	.	.	.	.	.	.	.	.	.	.	.	4a\)	.
4G\	.	.	.	.	.	.	.	.	.	.	.	4b\	-tus
=3	=3	=3	=3	=3	=3	=3	=3	=3	=3	=3	=3	=3	=3
!	!	!	!	!	!	!	!	!	!	!	!	!LO:SIC:v:l:s=vir	!
4D\	4	.	.	.	.	.	.	.	.	.	.	(4b\	uir
4D\	3	.	.	.	.	.	.	.	.	.	.	4a\)	.
4D\	.	.	.	.	.	.	.	.	.	.	.	4dd\	Be-
!	!	!	!	!	!	!	!	!	!	!	!	!LO:LB:g=original	!
=4	=4	=4	=4	=4	=4	=4	=4	=4	=4	=4	=4	=4	=4
4D\	.	.	.	.	.	.	.	.	.	.	.	(4dd\	-a-
4D\	.	.	.	.	.	.	.	.	.	.	.	4a\)	.
4D\	6 4	.	.	.	.	.	.	.	.	.	.	4b\	-tus
=5	=5	=5	=5	=5	=5	=5	=5	=5	=5	=5	=5	=5	=5
!	!	!LO:N:vis=00	!	!LO:N:vis=00	!	!LO:N:vis=00	!	!LO:N:vis=00	!	!LO:N:vis=00	!	!LO:SIC:v:l:s=vir	!
4D\	6 4	0.r	.	0.r	.	0.r	.	0.r	.	0.r	.	(4b\	uir
4D\	5 3	.	.	.	.	.	.	.	.	.	.	4a\)	.
4D\	.	.	.	.	.	.	.	.	.	.	.	4r	.
!LO:LB:g=original	!	!	!	!	!	!	!	!	!	!	!	!	!
=6	=6	=6	=6	=6	=6	=6	=6	=6	=6	=6	=6	=6	=6
!	!	!	!	!	!	!	!	!	!	!	!	!LO:SIC:v:l:s=qui	!
4E\	.	.	.	.	.	.	.	.	.	.	.	2.gg\	qvi
4C#\	.	.	.	.	.	.	.	.	.	.	.	.	.
4AA\	7	.	.	.	.	.	.	.	.	.	.	.	.
=7	=7	=7	=7	=7	=7	=7	=7	=7	=7	=7	=7	=7	=7
4D\	.	.	.	.	.	.	.	.	.	.	.	(4ff#\	ti-
4E\	.	.	.	.	.	.	.	.	.	.	.	4ee\)	.
4F#\	.	.	.	.	.	.	.	.	.	.	.	4dd\	-met
=8	=8	=8	=8	=8	=8	=8	=8	=8	=8	=8	=8	=8	=8
4G\	6	.	.	.	.	.	.	.	.	.	.	8b\L	do-
.	.	.	.	.	.	.	.	.	.	.	.	8ee\J	.
.	.	.	.	.	.	.	.	.	.	.	.	8qqdd/	.
4A\	.	.	.	.	.	.	.	.	.	.	.	2cc#\	-mi-
4G\	4	.	.	.	.	.	.	.	.	.	.	.	.
!	!	!	!	!	!	!	!	!	!	!	!	!LO:LB:g=original	!
=9	=9	=9	=9	=9	=9	=9	=9	=9	=9	=9	=9	=9	=9
.	.	.	.	.	.	.	.	.	.	.	.	8qqee/	.
!	!	!LO:N:vis=00	!	!LO:N:vis=00	!	!LO:N:vis=00	!	!LO:N:vis=00	!	!LO:N:vis=00	!	!	!
4F#\	6	0.r	.	0.r	.	0.r	.	0.r	.	0.r	.	2.dd\	-num
4E\	.	.	.	.	.	.	.	.	.	.	.	.	.
4D\	.	.	.	.	.	.	.	.	.	.	.	.	.
=10	=10	=10	=10	=10	=10	=10	=10	=10	=10	=10	=10	=10	=10
!	!	!	!	!	!	!	!	!	!	!	!	!LO:SIC:v:l:s=qui	!
4E\	.	.	.	.	.	.	.	.	.	.	.	2.gg\	qvi
4C#\	.	.	.	.	.	.	.	.	.	.	.	.	.
4AA\	7	.	.	.	.	.	.	.	.	.	.	.	.
!LO:LB:g=original	!	!	!	!	!	!	!	!	!	!	!	!	!
=11	=11	=11	=11	=11	=11	=11	=11	=11	=11	=11	=11	=11	=11
4D\	.	.	.	.	.	.	.	.	.	.	.	(4ff#\	ti-
4E\	.	.	.	.	.	.	.	.	.	.	.	4ee\)	.
4F#\	.	.	.	.	.	.	.	.	.	.	.	4dd\	-met
=12	=12	=12	=12	=12	=12	=12	=12	=12	=12	=12	=12	=12	=12
4G\	6	.	.	.	.	.	.	.	.	.	.	8b\L	do-
.	.	.	.	.	.	.	.	.	.	.	.	8ee\J	.
.	.	.	.	.	.	.	.	.	.	.	.	8qqdd/	.
4A\	.	.	.	.	.	.	.	.	.	.	.	2cc#\	-mi-
4G\	4	.	.	.	.	.	.	.	.	.	.	.	.
=13	=13	=13	=13	=13	=13	=13	=13	=13	=13	=13	=13	=13	=13
!	!	!LO:N:vis=00	!	!LO:N:vis=00	!	!LO:N:vis=00	!	!LO:N:vis=00	!	!LO:N:vis=00	!	!	!
4F#\	6	0.r	.	0.r	.	0.r	.	0.r	.	0.r	.	4dd\	-num
4F#\	.	.	.	.	.	.	.	.	.	.	.	4r	.
4E\	.	.	.	.	.	.	.	.	.	.	.	4r	.
!	!	!	!	!	!	!	!	!	!	!	!	!LO:LB:g=original	!
=14	=14	=14	=14	=14	=14	=14	=14	=14	=14	=14	=14	=14	=14
4D\	.	.	.	.	.	.	.	.	.	.	.	(4a\	in
4d\	.	.	.	.	.	.	.	.	.	.	.	4ff#\)	.
4c#\	.	.	.	.	.	.	.	.	.	.	.	4ee\	man-
=15	=15	=15	=15	=15	=15	=15	=15	=15	=15	=15	=15	=15	=15
.	.	.	.	.	.	.	.	.	.	.	.	8qqee/	.
4B\	.	.	.	.	.	.	.	.	.	.	.	2dd\	-da-
4G#X\	.	.	.	.	.	.	.	.	.	.	.	.	.
4A\	.	.	.	.	.	.	.	.	.	.	.	4cc#\	-tis
=16	=16	=16	=16	=16	=16	=16	=16	=16	=16	=16	=16	=16	=16
*2\right	*below	*	*	*	*	*	*	*	*	*	*	*	*
2d\	5	.	.	.	.	.	.	.	.	.	.	(4a\	e-
.	.	.	.	.	.	.	.	.	.	.	.	4ff#\)	.
4c#\	.	.	.	.	.	.	.	.	.	.	.	4ee\	-ius
!LO:LB:g=original	!	!	!	!	!	!	!	!	!	!	!	!	!
=17	=17	=17	=17	=17	=17	=17	=17	=17	=17	=17	=17	=17	=17
!	!	!	!	!	!	!	!	!	!	!	!	!LO:SIC:v:l:s=vo	!
.	.	.	.	.	.	.	.	.	.	.	.	8qqee/	.
!	!	!LO:N:vis=00	!	!LO:N:vis=00	!	!LO:N:vis=00	!	!LO:N:vis=00	!	!LO:N:vis=00	!	!	!
4B\	.	0.r	.	0.r	.	0.r	.	0.r	.	0.r	.	2dd\	uo-
4G#X\	.	.	.	.	.	.	.	.	.	.	.	.	.
4A\	.	.	.	.	.	.	.	.	.	.	.	4cc#\	-let
!	!	!	!	!	!	!	!	!	!	!	!	!LO:LB:g=original	!
=18	=18	=18	=18	=18	=18	=18	=18	=18	=18	=18	=18	=18	=18
!	!	!	!	!	!	!	!	!	!	!	!	!LO:SIC:v:l:s=vo	!
2d\	.	.	.	.	.	.	.	.	.	.	.	(4a\	uo-
.	.	.	.	.	.	.	.	.	.	.	.	4ff#\)	.
4c#\	.	.	.	.	.	.	.	.	.	.	.	4ee\	-let
=19	=19	=19	=19	=19	=19	=19	=19	=19	=19	=19	=19	=19	=19
!	!	!	!	!	!	!	!	!	!	!	!	!LO:SIC:v:l:s=vo	!
.	.	.	.	.	.	.	.	.	.	.	.	8qqee/	.
4B\	.	.	.	.	.	.	.	.	.	.	.	2dd\	uo-
4G#X\	.	.	.	.	.	.	.	.	.	.	.	.	.
4A\	.	.	.	.	.	.	.	.	.	.	.	4cc#\	-let
=20	=20	=20	=20	=20	=20	=20	=20	=20	=20	=20	=20	=20	=20
*	*above	*	*	*	*	*	*	*	*	*	*	*	*
4D\	6	.	.	.	.	.	.	.	.	.	.	4b\	ni-
4D#X\	5	.	.	.	.	.	.	.	.	.	.	2a\	.
4D#\	.	.	.	.	.	.	.	.	.	.	.	.	.
=21	=21	=21	=21	=21	=21	=21	=21	=21	=21	=21	=21	=21	=21
.	.	.	.	.	.	.	.	.	.	.	.	8qqcc#/	.
!	!	!LO:N:vis=00	!	!LO:N:vis=00	!	!LO:N:vis=00	!	!LO:N:vis=00	!	!LO:N:vis=00	!	!	!
4E\	.	0.r	.	0.r	.	0.r	.	0.r	.	0.r	.	2g#X\	-mis
4E\	#3	.	.	.	.	.	.	.	.	.	.	.	.
4E\	.	.	.	.	.	.	.	.	.	.	.	4r	.
!LO:LB:g=original	!	!	!	!	!	!	!	!	!	!	!	!	!
=22	=22	=22	=22	=22	=22	=22	=22	=22	=22	=22	=22	=22	=22
4E\	.	.	.	.	.	.	.	.	.	.	.	8b\L	Be-
.	.	.	.	.	.	.	.	.	.	.	.	8cc#\J	.
4E\	7	.	.	.	.	.	.	.	.	.	.	8dd\L	-a-
.	.	.	.	.	.	.	.	.	.	.	.	8b\J	.
4E\	.	.	.	.	.	.	.	.	.	.	.	8a\L	-tus
.	.	.	.	.	.	.	.	.	.	.	.	8g#X\J	.
!	!	!	!	!	!	!	!	!	!	!	!	!LO:LB:g=original	!
=23	=23	=23	=23	=23	=23	=23	=23	=23	=23	=23	=23	=23	=23
!	!	!	!	!	!	!	!	!	!	!	!	!LO:SIC:v:l:s=vir	!
.	.	.	.	.	.	.	.	.	.	.	.	8qqcc#/	.
4E\	.	.	.	.	.	.	.	.	.	.	.	2.a\	uir
4E\	6 4	.	.	.	.	.	.	.	.	.	.	.	.
4E\	.	.	.	.	.	.	.	.	.	.	.	.	.
=24	=24	=24	=24	=24	=24	=24	=24	=24	=24	=24	=24	=24	=24
4E\	.	.	.	.	.	.	.	.	.	.	.	8cc#\L	be-
.	.	.	.	.	.	.	.	.	.	.	.	8dd\J	.
4E\	#3	.	.	.	.	.	.	.	.	.	.	8ee\L	-a-
.	.	.	.	.	.	.	.	.	.	.	.	8cc#\J	.
4E\	.	.	.	.	.	.	.	.	.	.	.	8b\L	-tus
.	.	.	.	.	.	.	.	.	.	.	.	8a\J	.
=25	=25	=25	=25	=25	=25	=25	=25	=25	=25	=25	=25	=25	=25
!	!	!	!	!	!	!	!	!	!	!	!	!LO:SIC:v:l:s=vir	!
.	.	.	.	.	.	.	.	.	.	.	.	8qqa#X/	.
!	!	!LO:N:vis=00	!	!LO:N:vis=00	!	!LO:N:vis=00	!	!LO:N:vis=00	!	!LO:N:vis=00	!	!	!
4E\	.	0.r	.	0.r	.	0.r	.	0.r	.	0.r	.	2.b\	uir
4E\	.	.	.	.	.	.	.	.	.	.	.	.	.
4E\	.	.	.	.	.	.	.	.	.	.	.	.	.
=26	=26	=26	=26	=26	=26	=26	=26	=26	=26	=26	=26	=26	=26
!	!	!	!	!	!	!	!	!	!	!	!	!LO:TX:a:t=P:problem=brak taktu	!
4A\	.	.	.	.	.	.	.	.	.	.	.	2.ryy	.
4B\	.	.	.	.	.	.	.	.	.	.	.	.	.
4c#\	.	.	.	.	.	.	.	.	.	.	.	.	.
!LO:LB:g=original	!	!	!	!	!	!	!	!	!	!	!	!	!
=27	=27	=27	=27	=27	=27	=27	=27	=27	=27	=27	=27	=27	=27
4d\	.	.	.	.	.	.	.	.	.	.	.	8dd\L	Be-
.	.	.	.	.	.	.	.	.	.	.	.	8ee\J	.
*	*below	*	*	*	*	*	*	*	*	*	*	*	*
4e\	5 4	.	.	.	.	.	.	.	.	.	.	8ff#\L	-a-
.	.	.	.	.	.	.	.	.	.	.	.	8ee\	.
4E\	5 #3	.	.	.	.	.	.	.	.	.	.	8dd\	.
.	.	.	.	.	.	.	.	.	.	.	.	8cc#\J	.
=28	=28	=28	=28	=28	=28	=28	=28	=28	=28	=28	=28	=28	=28
4A\	.	.	.	.	.	.	.	.	.	.	.	4cc#\	.
4B\	.	.	.	.	.	.	.	.	.	.	.	4dd\	.
4c#\	.	.	.	.	.	.	.	.	.	.	.	4ee\	.
!	!	!	!	!	!	!	!	!	!	!	!	!LO:LB:g=original	!
=29	=29	=29	=29	=29	=29	=29	=29	=29	=29	=29	=29	=29	=29
*	*	*	*	*	*	*	*	*	*	*	*	*Xtuplet	*
!	!	!LO:N:vis=00	!	!LO:N:vis=00	!	!LO:N:vis=00	!	!LO:N:vis=00	!	!LO:N:vis=0	!	!	!
4d\	.	0.r	.	0.r	.	0.r	.	0.r	.	1.r	.	12ff#\L	.
.	.	.	.	.	.	.	.	.	.	.	.	12ee\	.
.	.	.	.	.	.	.	.	.	.	.	.	12dd\J	.
4e\	6 4	.	.	.	.	.	.	.	.	.	.	4cc#\	.
.	x #3	.	.	.	.	.	.	.	.	.	.	.	.
4E\	5	.	.	.	.	.	.	.	.	.	.	4b\	-tus
!	!	!	!	!	!	!	!	!	!	!	!	!LO:LB:g=original	!
=30	=30	=30	=30	=30	=30	=30	=30	=30	=30	=30	=30	=30	=30
!LO:TX:a:t=P:problem=brak taktu	!	!	!	!	!	!	!	!	!	!	!	!LO:SIC:v:l:s=vir	!
2.ryy	.	.	.	.	.	.	.	.	.	.	.	(4cc#\	uir
.	.	.	.	.	.	.	.	.	.	.	.	4dd\)	.
.	.	.	.	.	.	.	.	.	.	.	.	4ee\	be-
=31	=31	=31	=31	=31	=31	=31	=31	=31	=31	=31	=31	=31	=31
*	*	*	*	*	*	*	*	*	*	*2\right	*	*	*
!LO:TX:a:t=Al.	!	!	!	!	!	!	!	!	!	!	!	!	!
4A\	.	.	.	.	.	.	.	.	.	2.a\	Be-	8dd\L	-a-
.	.	.	.	.	.	.	.	.	.	.	.	8b\J	.
4c#\	.	.	.	.	.	.	.	.	.	.	.	4cc#\	.
4B\	.	.	.	.	.	.	.	.	.	.	.	4b\	-tus
=32	=32	=32	=32	=32	=32	=32	=32	=32	=32	=32	=32	=32	=32
!	!	!	!	!	!	!	!	!	!	!	!	!LO:SIC:v:l:s=vir	!
2A\	.	.	.	.	.	.	.	.	.	(4a\	-a-	2a\	uir
.	.	.	.	.	.	.	.	.	.	4e\)	.	.	.
4d\	.	.	.	.	.	.	.	.	.	4f#\	-tus	4r	.
!LO:LB:g=original	!	!	!	!	!	!	!	!	!	!	!	!LO:LB:g=original	!
=33	=33	=33	=33	=33	=33	=33	=33	=33	=33	=33	=33	=33	=33
*	*above	*	*	*	*	*	*	*	*	*	*	*	*
!	!	!	!	!	!	!	!	!	!	!LO:SIC:v:l:s=vir	!	!LO:TX:b:t=58	!
!	!	!LO:N:vis=00	!	!LO:N:vis=00	!	!LO:N:vis=00	!	!LO:N:vis=00	!	!	!	!LO:N:vis=00	!
4A\	6 4	0.r	.	0.r	.	0.r	.	0.r	.	4f#\	uir	0.r	.
4A\	5 3	.	.	.	.	.	.	.	.	4e\	.	.	.
4A\	.	.	.	.	.	.	.	.	.	4a\	be-	.	.
!	!	!	!	!	!	!	!	!	!	!LO:LB:g=original	!	!	!
=34	=34	=34	=34	=34	=34	=34	=34	=34	=34	=34	=34	=34	=34
4A\	.	.	.	.	.	.	.	.	.	(4a\	-a-	.	.
4A\	.	.	.	.	.	.	.	.	.	4e\)	.	.	.
4A\	6 4	.	.	.	.	.	.	.	.	4f#\	-tus	.	.
=35	=35	=35	=35	=35	=35	=35	=35	=35	=35	=35	=35	=35	=35
!	!	!	!	!	!	!	!	!	!	!LO:SIC:v:l:s=vir	!	!	!
4A\	6 4	.	.	.	.	.	.	.	.	4f#\	uir	.	.
4A\	5 3	.	.	.	.	.	.	.	.	4e\	.	.	.
4A\	.	.	.	.	.	.	.	.	.	4r	.	.	.
=36	=36	=36	=36	=36	=36	=36	=36	=36	=36	=36	=36	=36	=36
4B\	.	.	.	.	.	.	.	.	.	2.dd\	qui	.	.
4G#X\	.	.	.	.	.	.	.	.	.	.	.	.	.
4E\	7	.	.	.	.	.	.	.	.	.	.	.	.
=37	=37	=37	=37	=37	=37	=37	=37	=37	=37	=37	=37	=37	=37
!	!	!LO:N:vis=00	!	!LO:N:vis=00	!	!LO:N:vis=00	!	!LO:N:vis=00	!	!	!	!LO:N:vis=00	!
4A\	.	0.r	.	0.r	.	0.r	.	0.r	.	(4cc#\	ti-	0.r	.
4B\	.	.	.	.	.	.	.	.	.	4b\)	.	.	.
4c#\	.	.	.	.	.	.	.	.	.	4a\	-met	.	.
!LO:LB:g=original	!	!	!	!	!	!	!	!	!	!	!	!	!
=38	=38	=38	=38	=38	=38	=38	=38	=38	=38	=38	=38	=38	=38
4d\	.	.	.	.	.	.	.	.	.	8f#\L	do-	.	.
.	.	.	.	.	.	.	.	.	.	8b\J	.	.	.
*	*below	*	*	*	*	*	*	*	*	*	*	*	*
4e\	#3	.	.	.	.	.	.	.	.	2g#X\	-(mi)-	.	.
4d\	#4	.	.	.	.	.	.	.	.	.	.	.	.
!	!	!	!	!	!	!	!	!	!	!LO:LB:g=original	!	!	!
=39	=39	=39	=39	=39	=39	=39	=39	=39	=39	=39	=39	=39	=39
.	.	.	.	.	.	.	.	.	.	8qqb/	.	.	.
*	*above	*	*	*	*	*	*	*	*	*	*	*	*
4c#\	6	.	.	.	.	.	.	.	.	2.a\	-num	.	.
4B\	.	.	.	.	.	.	.	.	.	.	.	.	.
4A\	.	.	.	.	.	.	.	.	.	.	.	.	.
=40	=40	=40	=40	=40	=40	=40	=40	=40	=40	=40	=40	=40	=40
!	!	!	!	!	!	!	!	!	!	!LO:SIC:v:l:s=qui	!	!	!
4B\	.	.	.	.	.	.	.	.	.	2.dd\	qvi	.	.
4G#X\	.	.	.	.	.	.	.	.	.	.	.	.	.
4E\	7	.	.	.	.	.	.	.	.	.	.	.	.
=41	=41	=41	=41	=41	=41	=41	=41	=41	=41	=41	=41	=41	=41
!	!	!LO:N:vis=00	!	!LO:N:vis=00	!	!LO:N:vis=00	!	!LO:N:vis=00	!	!	!	!LO:N:vis=00	!
4A\	.	0.r	.	0.r	.	0.r	.	0.r	.	(4cc#\	ti-	0.r	.
4B\	.	.	.	.	.	.	.	.	.	4b\)	.	.	.
4c#\	.	.	.	.	.	.	.	.	.	4a\	-met	.	.
=42	=42	=42	=42	=42	=42	=42	=42	=42	=42	=42	=42	=42	=42
4d\	.	.	.	.	.	.	.	.	.	8f#\L	do-	.	.
.	.	.	.	.	.	.	.	.	.	8b\J	.	.	.
*	*below	*	*	*	*	*	*	*	*	*	*	*	*
4e\	#3	.	.	.	.	.	.	.	.	2g#X\	-mi-	.	.
4d\	.	.	.	.	.	.	.	.	.	.	.	.	.
!LO:LB:g=original	!	!	!	!	!	!	!	!	!	!	!	!	!
=43	=43	=43	=43	=43	=43	=43	=43	=43	=43	=43	=43	=43	=43
*	*above	*	*	*	*	*	*	*	*	*	*	*	*
4c#\	6	.	.	.	.	.	.	.	.	2a\	-num	.	.
4c#\	.	.	.	.	.	.	.	.	.	.	.	.	.
4B\	#6	.	.	.	.	.	.	.	.	4r	.	.	.
!	!	!	!	!	!	!	!	!	!	!LO:LB:g=original	!	!	!
=44	=44	=44	=44	=44	=44	=44	=44	=44	=44	=44	=44	=44	=44
2A\	.	.	.	.	.	.	.	.	.	(4e\	in	.	.
.	.	.	.	.	.	.	.	.	.	4cc#\)	.	.	.
4G#X\	.	.	.	.	.	.	.	.	.	4b\	man-	.	.
=45	=45	=45	=45	=45	=45	=45	=45	=45	=45	=45	=45	=45	=45
.	.	.	.	.	.	.	.	.	.	8qqb/	.	.	.
!	!	!LO:N:vis=00	!	!LO:N:vis=00	!	!LO:N:vis=00	!	!LO:N:vis=00	!	!	!	!LO:N:vis=00	!
4F#\	#6	0.r	.	0.r	.	0.r	.	0.r	.	2a\	-da-	0.r	.
4D#X\	.	.	.	.	.	.	.	.	.	.	.	.	.
4E\	#3	.	.	.	.	.	.	.	.	4g#X\	-tis	.	.
=46	=46	=46	=46	=46	=46	=46	=46	=46	=46	=46	=46	=46	=46
2A\	.	.	.	.	.	.	.	.	.	(4e\	e-	.	.
.	.	.	.	.	.	.	.	.	.	4cc#\)	.	.	.
4G#X\	.	.	.	.	.	.	.	.	.	4b\	-ius	.	.
=47	=47	=47	=47	=47	=47	=47	=47	=47	=47	=47	=47	=47	=47
!	!	!	!	!	!	!	!	!	!	!LO:SIC:v:l:s=vo	!	!	!
.	.	.	.	.	.	.	.	.	.	8qqb/	.	.	.
4F#\	.	.	.	.	.	.	.	.	.	2a\	uo-	.	.
4D#X\	.	.	.	.	.	.	.	.	.	.	.	.	.
4E\	#3	.	.	.	.	.	.	.	.	4g#X\	-let	.	.
!	!	!	!	!	!	!	!	!	!	!LO:LB:g=original	!	!	!
=48	=48	=48	=48	=48	=48	=48	=48	=48	=48	=48	=48	=48	=48
!	!	!	!	!	!	!	!	!	!	!LO:SIC:v:l:s=vo	!	!	!
2A\	.	.	.	.	.	.	.	.	.	(4e\	uo-	.	.
.	.	.	.	.	.	.	.	.	.	4cc#\)	.	.	.
4G#X\	.	.	.	.	.	.	.	.	.	4b\	-let	.	.
!LO:PB:g=original	!	!	!	!	!	!	!	!	!	!	!	!	!
=49	=49	=49	=49	=49	=49	=49	=49	=49	=49	=49	=49	=49	=49
!	!	!	!	!	!	!	!	!	!	!LO:SIC:v:l:s=vo	!	!	!
.	.	.	.	.	.	.	.	.	.	8qqb/	.	.	.
!	!	!LO:N:vis=00	!	!LO:N:vis=00	!	!LO:N:vis=00	!	!LO:N:vis=00	!	!	!	!LO:N:vis=00	!
4F#\	.	0.r	.	0.r	.	0.r	.	0.r	.	2a\	uo-	0.r	.
4D#X\	.	.	.	.	.	.	.	.	.	.	.	.	.
4E\	#3	.	.	.	.	.	.	.	.	4g#X\	-let	.	.
=50	=50	=50	=50	=50	=50	=50	=50	=50	=50	=50	=50	=50	=50
!	!	!	!	!	!	!	!	!	!	!LO:SIC:v:s=4g#	!	!	!
4B\	#6 4	.	.	.	.	.	.	.	.	4g\	ni-	.	.
4B\	5 #3	.	.	.	.	.	.	.	.	4f#\	-mis	.	.
4B\	.	.	.	.	.	.	.	.	.	4r	.	.	.
=51	=51	=51	=51	=51	=51	=51	=51	=51	=51	=51	=51	=51	=51
4B\	.	.	.	.	.	.	.	.	.	8f#\L	Be-	.	.
.	.	.	.	.	.	.	.	.	.	8g#X\J	.	.	.
4B\	.	.	.	.	.	.	.	.	.	8a\L	-a-	.	.
.	.	.	.	.	.	.	.	.	.	8f#\J	.	.	.
4B\	.	.	.	.	.	.	.	.	.	8e\L	-tus	.	.
.	.	.	.	.	.	.	.	.	.	8d#X\J	.	.	.
!	!	!	!	!	!	!	!	!	!	!LO:LB:g=original	!	!	!
=52	=52	=52	=52	=52	=52	=52	=52	=52	=52	=52	=52	=52	=52
!	!	!	!	!	!	!	!	!	!	!LO:SIC:v:l:s=vir	!	!	!
.	.	.	.	.	.	.	.	.	.	8qqd#X/	.	.	.
4B\	#6 4	.	.	.	.	.	.	.	.	2.e\	uir	.	.
4B\	.	.	.	.	.	.	.	.	.	.	.	.	.
4B\	.	.	.	.	.	.	.	.	.	.	.	.	.
=53	=53	=53	=53	=53	=53	=53	=53	=53	=53	=53	=53	=53	=53
!	!	!LO:N:vis=00	!	!LO:N:vis=00	!	!LO:N:vis=00	!	!LO:N:vis=00	!	!	!	!LO:N:vis=00	!
4B\	.	0.r	.	0.r	.	0.r	.	0.r	.	8g#X\L	Be-	0.r	.
.	.	.	.	.	.	.	.	.	.	8a\J	.	.	.
4B\	.	.	.	.	.	.	.	.	.	8b\L	-a-	.	.
.	.	.	.	.	.	.	.	.	.	8g#\J	.	.	.
4B\	.	.	.	.	.	.	.	.	.	8f#\L	-tus	.	.
.	.	.	.	.	.	.	.	.	.	8e\J	.	.	.
!LO:LB:g=original	!	!	!	!	!	!	!	!	!	!	!	!	!
=54	=54	=54	=54	=54	=54	=54	=54	=54	=54	=54	=54	=54	=54
!	!	!	!	!	!	!	!	!	!	!LO:SIC:v:l:s=vir	!	!	!
4B\	5 #3	.	.	.	.	.	.	.	.	2.f#\	uir	.	.
4B\	.	.	.	.	.	.	.	.	.	.	.	.	.
4B\	.	.	.	.	.	.	.	.	.	.	.	.	.
=55	=55	=55	=55	=55	=55	=55	=55	=55	=55	=55	=55	=55	=55
4B\	.	.	.	.	.	.	.	.	.	8a\L	be-	.	.
.	.	.	.	.	.	.	.	.	.	8b\J	.	.	.
4B\	.	.	.	.	.	.	.	.	.	8cc#\L	-a-	.	.
.	.	.	.	.	.	.	.	.	.	8a\	.	.	.
4B\	.	.	.	.	.	.	.	.	.	8g#X\	.	.	.
.	.	.	.	.	.	.	.	.	.	8f#\J	.	.	.
!	!	!	!	!	!	!	!	!	!	!LO:LB:g=original	!	!	!
=56	=56	=56	=56	=56	=56	=56	=56	=56	=56	=56	=56	=56	=56
4E\	#3	.	.	.	.	.	.	.	.	4g#X\	.	.	.
4F#\	.	.	.	.	.	.	.	.	.	4a\	.	.	.
4G#X\	.	.	.	.	.	.	.	.	.	4b\	.	.	.
=57	=57	=57	=57	=57	=57	=57	=57	=57	=57	=57	=57	=57	=57
*	*	*	*	*	*	*	*	*	*	*Xtuplet	*	*	*
!	!	!LO:N:vis=0	!	!LO:N:vis=0	!	!LO:N:vis=0	!	!LO:N:vis=0	!	!LO:TUP:a:problem=klamra łukowa	!	!LO:N:vis=00	!
4A\	.	1.r	.	1.r	.	1.r	.	1.r	.	12cc#\L	.	0.r	.
.	.	.	.	.	.	.	.	.	.	12b\	.	.	.
.	.	.	.	.	.	.	.	.	.	12a\J	.	.	.
4B\	#6 4	.	.	.	.	.	.	.	.	4g#X\	.	.	.
4B\	5 #3	.	.	.	.	.	.	.	.	4f#\	.	.	.
=58	=58	=58	=58	=58	=58	=58	=58	=58	=58	=58	=58	=58	=58
4E\	#	.	.	.	.	.	.	.	.	4g#X\	.	.	.
4F#\	.	.	.	.	.	.	.	.	.	4a\	.	.	.
4G#X\	.	.	.	.	.	.	.	.	.	4b\	.	.	.
!LO:LB:g=original	!	!	!	!	!	!	!	!	!	!	!	!	!
=59	=59	=59	=59	=59	=59	=59	=59	=59	=59	=59	=59	=59	=59
!	!	!	!	!	!	!	!	!	!	!LO:TUP:a:problem=klamra łukowa	!	!	!
4A\	.	2.r	.	2.r	.	2.r	.	2.r	.	12a\L	.	.	.
.	.	.	.	.	.	.	.	.	.	12g#X\	.	.	.
.	.	.	.	.	.	.	.	.	.	12f#\J	.	.	.
4B\	#6 4	.	.	.	.	.	.	.	.	4g#\	.	.	.
4BB/	5 #3	.	.	.	.	.	.	.	.	4f#\	-tus	.	.
!	!	!	!	!	!	!	!	!	!	!LO:LB:g=original	!	!	!
=60	=60	=60	=60	=60	=60	=60	=60	=60	=60	=60	=60	=60	=60
*	*below	*2\right	*	*2\right	*	*2\right	*	*2\right	*	*	*	*	*
!LO:TX:a:t=Tutti	!	!	!	!	!	!	!	!	!	!LO:SIC:v:l:s=vir	!	!	!
2.E\	#3	2.E\	Be-	2.B\	Be-	2.g#X\	Be-	2.ee\	Be-	4e\	uir	.	.
.	.	.	.	.	.	.	.	.	.	4r	.	.	.
.	.	.	.	.	.	.	.	.	.	4r	.	.	.
=61	=61	=61	=61	=61	=61	=61	=61	=61	=61	=61	=61	=61	=61
*	*above	*	*	*	*	*	*	*	*	*	*	*	*
!	!	!	!	!	!	!	!	!	!	!LO:TX:b:t=29	!	!	!
!	!	!	!	!	!	!	!	!	!	!LO:N:vis=00	!	!LO:N:vis=00	!
2E\	#3	2E\	-a-	4B\	-a-	2g#X\	-a-	(4ee\	-a-	0.r	.	0.r	.
.	.	.	.	2e\	-tus	.	.	4b\)	.	.	.	.	.
4A\	.	4A\	-tus	.	.	4a\	-tus	4cc#\	-tus	.	.	.	.
!	!	!LO:LB:g=original	!	!	!	!LO:LB:g=original	!	!LO:LB:g=original	!	!	!	!	!
=62	=62	=62	=62	=62	=62	=62	=62	=62	=62	=62	=62	=62	=62
!	!	!LO:SIC:v:l:s=vir	!	!LO:SIC:v:l:s=vir	!	!LO:SIC:v:l:s=vir	!	!LO:SIC:v:l:s=vir	!	!	!	!	!
2E\	4	2E\	uir	2e\	uir	(4a\	uir	(4cc#\	uir	.	.	.	.
.	#3	.	.	.	.	4g#X\)	.	4b\)	.	.	.	.	.
4E\	.	4E\	be-	4e\	be-	4g#\	Be-	4ee\	be-	.	.	.	.
!	!	!	!	!LO:LB:g=original	!	!	!	!	!	!	!	!	!
=63	=63	=63	=63	=63	=63	=63	=63	=63	=63	=63	=63	=63	=63
2E\	.	2E\	-a-	2e\	-a-	2g#X\	-a-	(4ee\	-a-	.	.	.	.
.	.	.	.	.	.	.	.	4b\)	.	.	.	.	.
4A\	.	4A\	-tus	4e\	-tus	4a\	-tus	4cc#\	-tus	.	.	.	.
!LO:LB:g=original	!	!	!	!	!	!	!	!	!	!	!	!	!
=64	=64	=64	=64	=64	=64	=64	=64	=64	=64	=64	=64	=64	=64
!	!	!LO:SIC:v:l:s=vir	!	!LO:SIC:v:l:s=vir	!	!LO:SIC:v:l:s=vir	!	!LO:SIC:v:l:s=vir	!	!	!	!	!
2.E\	6 4	2E\	uir	(4e\	uir	(4a\	uir	4cc#\	uir	.	.	.	.
.	5 #3	.	.	4B\)	.	4g#X\)	.	4b\	.	.	.	.	.
.	.	4r	.	4r	.	4r	.	4r	.	.	.	.	.
=65	=65	=65	=65	=65	=65	=65	=65	=65	=65	=65	=65	=65	=65
!	!	!LO:SIC:v:l:s=qui	!	!LO:SIC:v:l:s=qui	!	!	!	!	!	!LO:N:vis=00	!	!LO:N:vis=00	!
2.E\	.	2.E\	qvi	2.B\	qvi	2.g#X\	qui	2.ee\	qui	0.r	.	0.r	.
!	!	!	!	!	!	!LO:LB:g=original	!	!	!	!	!	!	!
=66	=66	=66	=66	=66	=66	=66	=66	=66	=66	=66	=66	=66	=66
2A\	5	2A\	ti-	2c#\	ti-	(4a\	ti-	(4cc#\	ti-	.	.	.	.
.	.	.	.	.	.	4g#X\)	.	4b\)	.	.	.	.	.
4A\	6	4A\	-met	4c#\	-met	4f#\	-met	4a\	-met	.	.	.	.
!	!	!LO:LB:g=original	!	!	!	!	!	!LO:LB:g=original	!	!	!	!	!
=67	=67	=67	=67	=67	=67	=67	=67	=67	=67	=67	=67	=67	=67
*	*below	*	*	*	*	*	*	*	*	*	*	*	*
2B\	#6 4	2B\	do-	2B\	do-	8e\L	do-	8g#X\L	do-	.	.	.	.
.	.	.	.	.	.	8f#\J	.	8a\J	.	.	.	.	.
.	.	.	.	.	.	4e\	.	4g#\	.	.	.	.	.
4BB/	5 #3	4BB/	-mi-	4B\	-mi-	4d#X\	-mi-	4f#\	-mi-	.	.	.	.
!	!	!	!	!LO:LB:g=original	!	!	!	!	!	!	!	!	!
=68	=68	=68	=68	=68	=68	=68	=68	=68	=68	=68	=68	=68	=68
4E\	.	2E\	-num	2B\	-num	2e\	-num	2g#X\	-num	.	.	.	.
4G#X\	.	.	.	.	.	.	.	.	.	.	.	.	.
4E\	.	4r	.	4r	.	4r	.	4r	.	.	.	.	.
=69	=69	=69	=69	=69	=69	=69	=69	=69	=69	=69	=69	=69	=69
!	!	!	!	!	!	!	!	!	!	!LO:N:vis=00	!	!LO:N:vis=00	!
2.A\	5	2.A\	Be-	2.A\	Be-	4a\	Be-	4a\	be-	0.r	.	0.r	.
.	.	.	.	.	.	4e\	[[-a-]]	4cc#\	.	.	.	.	.
.	6	.	.	.	.	4f#\	.	4dd\	.	.	.	.	.
!LO:LB:g=original	!	!	!	!	!	!LO:LB:g=original	!	!	!	!	!	!	!
=70	=70	=70	=70	=70	=70	=70	=70	=70	=70	=70	=70	=70	=70
2A\	.	2A\	-a-	2A\	-a-	4f#\	-a-	(4dd\	-a-	.	.	.	.
.	.	.	.	.	.	4e\	.	4cc#\)	.	.	.	.	.
4d\	.	4d\	-tus	4A\	-tus	4a\	-tus	4dd\	-tus	.	.	.	.
=71	=71	=71	=71	=71	=71	=71	=71	=71	=71	=71	=71	=71	=71
!	!	!LO:SIC:v:l:s=vir	!	!LO:SIC:v:l:s=vir	!	!LO:SIC:v:l:s=vir	!	!LO:SIC:v:l:s=vir	!	!	!	!	!
2A\	.	2A\	uir	2A\	uir	(4a\	uir	2cc#\	uir	.	.	.	.
.	.	.	.	.	.	4e\)	.	.	.	.	.	.	.
*	*above	*	*	*	*	*	*	*	*	*	*	*	*
4A\	6 4	4A\	be-	4A\	be-	4f#\	Be-	4dd\	be-	.	.	.	.
!	!	!LO:LB:g=original	!	!	!	!	!	!LO:LB:g=original	!	!	!	!	!
=72	=72	=72	=72	=72	=72	=72	=72	=72	=72	=72	=72	=72	=72
*	*below	*	*	*	*	*	*	*	*	*	*	*	*
2A\	6 4	2A\	-a-	2A\	-a-	4f#\	-a-	(4dd\	-a-	.	.	.	.
.	5 3	.	.	.	.	4e\	.	4cc#\)	.	.	.	.	.
4d\	.	4d\	-tus	4A\	-tus	4a\	-tus	4dd\	-tus	.	.	.	.
=73	=73	=73	=73	=73	=73	=73	=73	=73	=73	=73	=73	=73	=73
!	!	!LO:SIC:v:l:s=vir	!	!	!	!LO:SIC:v:l:s=vir	!	!LO:SIC:v:l:s=vir	!	!LO:N:vis=00	!	!LO:N:vis=00	!
2.A\	.	2.A\	uir	2A\	vir	(4a\	uir	2cc#\	uir	0.r	.	0.r	.
.	.	.	.	.	.	4e\)	.	.	.	.	.	.	.
!	!	!	!	!LO:SIC:v:l:s=qui	!	!LO:SIC:v:l:s=qui	!	!LO:SIC:v:l:s=qui	!	!	!	!	!
.	.	.	.	4A\	qvi	4a\	qvi	4cc#\	qvi	.	.	.	.
!	!	!	!	!LO:LB:g=original	!	!LO:LB:g=original	!	!	!	!	!	!	!
=74	=74	=74	=74	=74	=74	=74	=74	=74	=74	=74	=74	=74	=74
!	!	!LO:SIC:v:l:s=qui	!	!	!	!	!	!	!	!	!	!	!
2.A\	.	2.A\	qvi	(4A\	ti-	2.a\	ti-	2.cc#\	ti-	.	.	.	.
.	.	.	.	4c#\)	.	.	.	.	.	.	.	.	.
.	.	.	.	4e\	-met	.	.	.	.	.	.	.	.
!LO:LB:g=original	!	!	!	!	!	!	!	!	!	!	!	!	!
=75	=75	=75	=75	=75	=75	=75	=75	=75	=75	=75	=75	=75	=75
2d\	.	2d\	ti-	2f#\	ti-	2.a\	-met	2.dd\	-met	.	.	.	.
4D\	.	4D\	-met	4f#\	-met	.	.	.	.	.	.	.	.
=76	=76	=76	=76	=76	=76	=76	=76	=76	=76	=76	=76	=76	=76
*	*above	*	*	*	*	*	*	*	*	*	*	*	*
4E\	4	2E\	do-	2e\	do-	2a\	do-	2b\	do-	.	.	.	.
4E\	#3	.	.	.	.	.	.	.	.	.	.	.	.
4E\	.	4E\	-mi-	4e\	-mi-	4g#X\	-mi-	4b\	-mi-	.	.	.	.
!	!	!LO:LB:g=original	!	!	!	!	!	!	!	!	!	!	!
=77	=77	=77	=77	=77	=77	=77	=77	=77	=77	=77	=77	=77	=77
!	!	!	!	!	!	!	!	!	!	!LO:N:vis=00	!	!LO:N:vis=00	!
4A\	.	4A\	-nu(m)	4e\	-num	4a\	-num	2cc#\	-num	0.r	.	0.r	.
4A\	.	4A\	in	4e\	in	4a\	in	.	.	.	.	.	.
4A\	.	4A\	man-	4e\	man-	4cc#\	man-	4r	.	.	.	.	.
!	!	!	!	!LO:LB:g=original	!	!	!	!LO:LB:g=original	!	!	!	!	!
=78	=78	=78	=78	=78	=78	=78	=78	=78	=78	=78	=78	=78	=78
!	!	!	!	!	!	!	!	!LO:TX:b:t=1	!	!	!	!	!
4G#X\	.	(4G#X\	-da-	2.e\	-da-	(4b\	-da-	2.r	.	.	.	.	.
4F#\	.	4F#\)	.	.	.	4a\)	.	.	.	.	.	.	.
4G#\	.	4G#\	-tis	.	.	4b\	-tis	.	.	.	.	.	.
!	!	!	!	!	!	!LO:LB:g=original	!	!	!	!	!	!	!
=79	=79	=79	=79	=79	=79	=79	=79	=79	=79	=79	=79	=79	=79
4E\	.	(4E\	e-	2.e\	-tis	(4g#X\	e-	4r	.	.	.	.	.
4F#\	.	4F#\)	.	.	.	4a\)	.	4ee\	in	.	.	.	.
4G#X\	.	4G#X\	-ius	.	.	4b\	-ius	4ee\	man-	.	.	.	.
!LO:LB:g=original	!	!	!	!	!	!	!	!	!	!	!	!	!
=80	=80	=80	=80	=80	=80	=80	=80	=80	=80	=80	=80	=80	=80
!LO:TX:a:t=P:problem=brak 4 taktów	!	!LO:SIC:v:l:s=vo	!	!	!	!LO:SIC:v:l:s=vo	!	!	!	!	!	!	!
2.ryy	.	2A\	uo-	2.e\	e-	2.e\	uo-	(4cc#\	-da-	.	.	.	.
.	.	.	.	.	.	.	.	4a\)	.	.	.	.	.
.	.	4A\	-let	.	.	.	.	4cc#\	-tis	.	.	.	.
!	!	!LO:LB:g=original	!	!	!	!	!	!	!	!	!	!	!
=81	=81	=81	=81	=81	=81	=81	=81	=81	=81	=81	=81	=81	=81
!LO:TX:t=P:problem=powinna tu być powtórka t. 78-80?	!	!	!	!	!	!	!	!LO:N:vis=00	!	!LO:N:vis=00	!	!	!
2.ryy	.	4r	.	2.e\	-ius	2.e\	-let	(4a\	e-	0.r	.	0.r	.
.	.	4A\	in	.	.	.	.	4b\)	.	.	.	.	.
.	.	4A\	man-	.	.	.	.	4cc#\	-ius	.	.	.	.
=82	=82	=82	=82	=82	=82	=82	=82	=82	=82	=82	=82	=82	=82
!	!	!	!	!LO:SIC:v:l:s=vo	!	!LO:SIC:v:l:s=vo	!	!LO:SIC:v:l:s=vo	!	!	!	!	!
2.ryy	.	4G#X\	-da-	4e\	uo-	2.e\	uo-	4b\	uo-	.	.	.	.
.	.	4F#\	.	2d\	-let	.	.	4b\	-let	.	.	.	.
.	.	4G#\	-tis	.	.	.	.	4r	.	.	.	.	.
!	!	!	!	!LO:LB:g=original	!	!	!	!	!	!	!	!	!
=83	=83	=83	=83	=83	=83	=83	=83	=83	=83	=83	=83	=83	=83
!	!	!	!	!	!	!	!	!LO:TX:b:t=1	!	!	!	!	!
2.ryy	.	(4E\	e-	2.d\	ni-	2.e\	-let	2.r	.	.	.	.	.
.	.	4F#\)	.	.	.	.	.	.	.	.	.	.	.
.	.	4G#X\	-ius	.	.	.	.	.	.	.	.	.	.
!	!	!	!	!	!	!	!	!LO:LB:g=original	!	!	!	!	!
=84	=84	=84	=84	=84	=84	=84	=84	=84	=84	=84	=84	=84	=84
!	!	!LO:SIC:v:l:s=vo	!	!	!	!LO:SIC:v:l:s=vo	!	!LO:SIC:v:l:s=vo	!	!	!	!	!
4A\	.	4A\	uo-	4c#\	-mis	8a\L	uo-	8cc#\L	uo-	.	.	.	.
.	.	.	.	.	.	8b\	.	8dd\	.	.	.	.	.
4A\	.	4A\	-let	4r	.	8cc#\	.	8ee\	.	.	.	.	.
.	.	.	.	.	.	8b\	.	8dd\	.	.	.	.	.
4r	.	4r	.	4r	.	8a\	.	8cc#\	.	.	.	.	.
.	.	.	.	.	.	8g#X\J	.	8b\J	.	.	.	.	.
!	!	!LO:LB:g=original	!	!	!	!LO:LB:g=original	!	!	!	!	!	!	!
=85	=85	=85	=85	=85	=85	=85	=85	=85	=85	=85	=85	=85	=85
!	!	!LO:SIC:v:l:s=vo	!	!LO:SIC:v:l:s=vo	!	!	!	!	!	!LO:N:vis=00	!	!LO:N:vis=00	!
4A\	.	4A\	uo-	8e\L	uo-	4a\	.	4cc#\	.	0.r	.	0.r	.
.	.	.	.	8d\J	.	.	.	.	.	.	.	.	.
4AA/	.	4AA/	-let	4c#\	-let	4a\	-let	4cc#\	-let	.	.	.	.
4r	.	4r	.	4r	.	4r	.	4r	.	.	.	.	.
=86	=86	=86	=86	=86	=86	=86	=86	=86	=86	=86	=86	=86	=86
!LO:TX:a:t=P:problem=nadmiarowe takty pauzy w C conc i A conc	!	!LO:TX:a:t=P:problem=nadmiarowe takty pauzy w C conc i A conc	!	!LO:TX:a:t=P:problem=nadmiarowe takty pauzy w C conc i A conc	!	!LO:TX:a:t=P:problem=nadmiarowe takty pauzy w C conc i A conc	!	!LO:TX:a:t=P:problem=nadmiarowe takty pauzy w C conc i A conc	!	!	!	!	!
2.ryy	.	2.ryy	.	2.ryy	.	2.ryy	.	2.ryy	.	.	.	.	.
=87	=87	=87	=87	=87	=87	=87	=87	=87	=87	=87	=87	=87	=87
2.ryy	.	2.ryy	.	2.ryy	.	2.ryy	.	2.ryy	.	.	.	.	.
=88	=88	=88	=88	=88	=88	=88	=88	=88	=88	=88	=88	=88	=88
2.ryy	.	2.ryy	.	2.ryy	.	2.ryy	.	2.ryy	.	.	.	.	.
=89	=89	=89	=89	=89	=89	=89	=89	=89	=89	=89	=89	=89	=89
!	!	!	!	!	!	!	!	!	!	!	!	!LO:N:vis=0	!
2.ryy	.	2.ryy	.	2.ryy	.	2.ryy	.	2.ryy	.	2.r	.	1.r	.
=90	=90	=90	=90	=90	=90	=90	=90	=90	=90	=90	=90	=90	=90
2.ryy	.	2.ryy	.	2.ryy	.	2.ryy	.	2.ryy	.	2.ryy	.	.	.
=91	=91	=91	=91	=91	=91	=91	=91	=91	=91	=91	=91	=91	=91
!	!	!LO:TX:b:t=1	!	!LO:TX:b:t=1	!	!LO:SIC:v:l:s=vo	!	!LO:SIC:v:l:s=vo	!	!	!	!	!
4A\	.	2.r	.	2.r	.	8a\L	uo-	8cc#\L	uo-	2a\	Be-	(2cc#\	Be-
.	.	.	.	.	.	8b\	.	8dd\	.	.	.	.	.
4A\	.	.	.	.	.	8cc#\	.	8ee\	.	.	.	.	.
.	.	.	.	.	.	8b\	.	8dd\	.	.	.	.	.
4A\	.	.	.	.	.	8a\	.	8cc#\	.	4b\	.	4dd\)	.
.	.	.	.	.	.	8g#X\J	.	8b\J	.	.	.	.	.
!	!	!	!	!LO:LB:g=original	!	!	!	!	!	!	!	!	!
=92	=92	=92	=92	=92	=92	=92	=92	=92	=92	=92	=92	=92	=92
!	!	!LO:SIC:v:l:s=vo	!	!LO:SIC:v:l:s=vo	!	!	!	!	!	!	!	!	!
2A\	.	2A\	uo-	(4e\	uo-	2a\	.	4cc#\	.	4cc#\	-a-	4ee\	-a-
.	.	.	.	4d\)	.	.	.	4dd\	.	4a\	.	4cc#\	.
4AA/	.	4AA/	-let	4c#\	-let	4a\	-let	4ee\	-let	[4dd\	.	[4ff#\	.
!	!	!	!	!	!	!	!	!	!	!LO:LB:g=original	!	!LO:LB:g=original	!
=93	=93	=93	=93	=93	=93	=93	=93	=93	=93	=93	=93	=93	=93
4D\	.	4D\	ni-	4f#\	ni-	2a\	ni-	8dd\L	ni-	4dd\]	.	4ff#\]	.
.	6 4	.	.	.	.	.	.	8b\J	.	.	.	.	.
2E\	5 #3	2E\	.	2e\	.	.	.	4cc#\	.	8cc#\L	.	8ee\L	.
.	.	.	.	.	.	.	.	.	.	8b\J	.	8dd\J	.
.	.	.	.	.	.	4g#X\	.	4b\	.	8a\L	.	8cc#\L	-tus
.	.	.	.	.	.	.	.	.	.	8g#X\J	-tus	8b\J	.
!LO:LB:g=original	!	!	!	!	!	!LO:LB:g=original	!	!LO:LB:g=original	!	!	!	!	!
=94	=94	=94	=94	=94	=94	=94	=94	=94	=94	=94	=94	=94	=94
!	!	!	!	!	!	!	!	!	!	!LO:SIC:v:l:s=vir	!	!LO:SIC:v:l:s=vir	!
2AA/	.	4AA/	-mis	4e\	-mis	4a\	-mis	4a\	-mis	(4a\	uir	(4cc#\	uir
.	.	4r	.	4r	.	4r	.	4r	.	4cc#\)	.	4ee\)	.
4r	.	4r	.	4r	.	4r	.	4r	.	[4dd\	Be-	[4ff#\	Be-
!	!	!LO:LB:g=original	!	!	!	!	!	!	!	!	!	!	!
=95	=95	=95	=95	=95	=95	=95	=95	=95	=95	=95	=95	=95	=95
!LO:TX:a:t=Soli	!	!LO:TX:b:t=36	!	!LO:TX:t=36	!	!LO:TX:t=36	!	!LO:TX:b:t=36	!	!	!	!	!
!	!	!LO:N:vis=00	!	!LO:N:vis=00	!	!LO:N:vis=00	!	!LO:N:vis=00	!	!	!	!	!
2.A\	.	0.r	.	0.r	.	0.r	.	0.r	.	4dd\]	.	4ff#\]	.
.	.	.	.	.	.	.	.	.	.	8cc#\L	-a-	8ee\L	-a-
.	.	.	.	.	.	.	.	.	.	8b\J	.	8dd\J	.
.	.	.	.	.	.	.	.	.	.	8a\L	-tus	8cc#\L	-tuſ
.	.	.	.	.	.	.	.	.	.	8g#X\J	.	8b\J	.
!	!	!	!	!	!	!	!	!	!	!LO:PB:g=original	!	!	!
=96	=96	=96	=96	=96	=96	=96	=96	=96	=96	=96	=96	=96	=96
!	!	!	!	!	!	!	!	!	!	!LO:TX:t=P:problem=dwa takty zamazane	!	!	!
!	!	!	!	!	!	!	!	!	!	!LO:SIC:v:l:s=vir	!	!LO:SIC:v:l:s=vir	!
2A\	.	.	.	.	.	.	.	.	.	4a\	uir	4cc#\	uir
.	.	.	.	.	.	.	.	.	.	4r	.	4r	.
4F#\	6	.	.	.	.	.	.	.	.	4cc#\	qui	4ee\	qui
!	!	!	!	!	!	!	!	!	!	!	!	!LO:PB:g=original	!
=97	=97	=97	=97	=97	=97	=97	=97	=97	=97	=97	=97	=97	=97
2GG#X/	7 5	.	.	.	.	.	.	.	.	2.b\	ti-	2.dd\	ti-
4E\	#3	.	.	.	.	.	.	.	.	.	.	.	.
=98	=98	=98	=98	=98	=98	=98	=98	=98	=98	=98	=98	=98	=98
2A\	.	.	.	.	.	.	.	.	.	2.a\	-met	2.cc#\	-met
4F#\	.	.	.	.	.	.	.	.	.	.	.	.	.
!	!	!	!	!	!	!	!	!	!	!LO:LB:g=original	!	!	!
=99	=99	=99	=99	=99	=99	=99	=99	=99	=99	=99	=99	=99	=99
!	!	!LO:N:vis=00	!	!LO:N:vis=00	!	!LO:N:vis=00	!	!LO:N:vis=00	!	!	!	!	!
2GG#X/	5 7	0.r	.	0.r	.	0.r	.	0.r	.	2.g#X\	ti-	2.b\	ti-
4E\	.	.	.	.	.	.	.	.	.	.	.	.	.
!LO:LB:g=original	!	!	!	!	!	!	!	!	!	!	!	!	!
=100	=100	=100	=100	=100	=100	=100	=100	=100	=100	=100	=100	=100	=100
4A\	.	.	.	.	.	.	.	.	.	2.f#\	-met	2.a\	-met
4A\	.	.	.	.	.	.	.	.	.	.	.	.	.
4A\	.	.	.	.	.	.	.	.	.	.	.	.	.
=101	=101	=101	=101	=101	=101	=101	=101	=101	=101	=101	=101	=101	=101
4A\	4 2	.	.	.	.	.	.	.	.	4.e\	Do-	4.g#X\	do-
4G#X\	5	.	.	.	.	.	.	.	.	.	.	.	.
.	.	.	.	.	.	.	.	.	.	8f#\	-mi-	8a\	-mi-
4G#\	.	.	.	.	.	.	.	.	.	4g#X\	-num	4b\	-num
!	!	!	!	!	!	!	!	!	!	!	!	!LO:LB:g=original	!
=102	=102	=102	=102	=102	=102	=102	=102	=102	=102	=102	=102	=102	=102
!	!	!	!	!	!	!	!	!	!	!LO:TX:a:t=P:problem=brak 4 taktów	!	!LO:TX:a:t=P:problem=brak 4 taktów	!
*	*below	*	*	*	*	*	*	*	*	*	*	*	*
4G#X\	4 2	.	.	.	.	.	.	.	.	2.ryy	.	2.ryy	.
*	*above	*	*	*	*	*	*	*	*	*	*	*	*
4F#\	5	.	.	.	.	.	.	.	.	.	.	.	.
4F#\	.	.	.	.	.	.	.	.	.	.	.	.	.
=103	=103	=103	=103	=103	=103	=103	=103	=103	=103	=103	=103	=103	=103
*	*below	*	*	*	*	*	*	*	*	*	*	*	*
!	!	!LO:N:vis=00	!	!LO:N:vis=00	!	!LO:N:vis=00	!	!LO:N:vis=00	!	!	!	!	!
4F#\	#2	0.r	.	0.r	.	0.r	.	0.r	.	2.ryy	.	2.ryy	.
4E\	.	.	.	.	.	.	.	.	.	.	.	.	.
4E\	.	.	.	.	.	.	.	.	.	.	.	.	.
=104	=104	=104	=104	=104	=104	=104	=104	=104	=104	=104	=104	=104	=104
*	*above	*	*	*	*	*	*	*	*	*	*	*	*
4E\	6 4 2	.	.	.	.	.	.	.	.	2.ryy	.	2.ryy	.
4D#X\	5	.	.	.	.	.	.	.	.	.	.	.	.
4D#\	.	.	.	.	.	.	.	.	.	.	.	.	.
!LO:PB:g=original	!	!	!	!	!	!	!	!	!	!	!	!	!
=105	=105	=105	=105	=105	=105	=105	=105	=105	=105	=105	=105	=105	=105
4E\	#3	.	.	.	.	.	.	.	.	2.ryy	.	2.ryy	.
4E\	.	.	.	.	.	.	.	.	.	.	.	.	.
4E\	.	.	.	.	.	.	.	.	.	.	.	.	.
=106	=106	=106	=106	=106	=106	=106	=106	=106	=106	=106	=106	=106	=106
!	!	!	!	!	!	!	!	!	!	!LO:TX:b:t=3	!	!	!
!	!	!	!	!	!	!	!	!	!	!LO:N:vis=0	!	!	!
4E\	#	.	.	.	.	.	.	.	.	1.r	.	4ee\	in
4E\	#	.	.	.	.	.	.	.	.	.	.	2g#X\	man-
4D\	#	.	.	.	.	.	.	.	.	.	.	.	.
=107	=107	=107	=107	=107	=107	=107	=107	=107	=107	=107	=107	=107	=107
!	!	!LO:N:vis=00	!	!LO:N:vis=00	!	!LO:N:vis=00	!	!LO:N:vis=00	!	!	!	!	!
4C#/	6	0.r	.	0.r	.	0.r	.	0.r	.	.	.	(4a\	-da-
4BB/	.	.	.	.	.	.	.	.	.	.	.	4b\)	.
4AA/	.	.	.	.	.	.	.	.	.	.	.	4cc#\	.
=108	=108	=108	=108	=108	=108	=108	=108	=108	=108	=108	=108	=108	=108
4GG#X/	5	.	.	.	.	.	.	.	.	2.r	.	4dd\	.
4AA/	.	.	.	.	.	.	.	.	.	.	.	4cc#\	.
4E\	#3	.	.	.	.	.	.	.	.	.	.	4b\	-tis
=109	=109	=109	=109	=109	=109	=109	=109	=109	=109	=109	=109	=109	=109
4A\	.	.	.	.	.	.	.	.	.	4a\	in	8cc#\L	e-
.	.	.	.	.	.	.	.	.	.	.	.	8b\J	.
4Gn\	#4	.	.	.	.	.	.	.	.	2c#\	man-	4a\	-ius
4G\	.	.	.	.	.	.	.	.	.	.	.	4r	.
!LO:LB:g=original	!	!	!	!	!	!	!	!	!	!LO:LB:g=original	!	!	!
=110	=110	=110	=110	=110	=110	=110	=110	=110	=110	=110	=110	=110	=110
!	!	!	!	!	!	!	!	!	!	!	!	!LO:TX:b:t=3	!
!	!	!	!	!	!	!	!	!	!	!	!	!LO:N:vis=0	!
4F#\	.	.	.	.	.	.	.	.	.	4d\	-da-	1.r	.
4E\	.	.	.	.	.	.	.	.	.	4e\	.	.	.
4D\	.	.	.	.	.	.	.	.	.	4f#\	.	.	.
=111	=111	=111	=111	=111	=111	=111	=111	=111	=111	=111	=111	=111	=111
!	!	!LO:N:vis=00	!	!LO:N:vis=00	!	!LO:N:vis=00	!	!LO:N:vis=00	!	!	!	!	!
4E\	6 n3	0.r	.	0.r	.	0.r	.	0.r	.	4g\	.	.	.
4D\	.	.	.	.	.	.	.	.	.	4f#\	.	.	.
4C#\	.	.	.	.	.	.	.	.	.	4e\	-tiſ	.	.
=112	=112	=112	=112	=112	=112	=112	=112	=112	=112	=112	=112	=112	=112
4D\	.	.	.	.	.	.	.	.	.	8f#\L	e-	2.r	.
.	.	.	.	.	.	.	.	.	.	8e\J	.	.	.
4D\	.	.	.	.	.	.	.	.	.	4d\	-ius	.	.
4E\	.	.	.	.	.	.	.	.	.	4r	.	.	.
!	!	!	!	!	!	!	!	!	!	!	!	!LO:LB:g=original	!
=113	=113	=113	=113	=113	=113	=113	=113	=113	=113	=113	=113	=113	=113
!	!	!	!	!	!	!	!	!	!	!LO:TUP:a:problem=klamra łukowa	!	!	!
!	!	!	!	!	!	!	!	!	!	!LO:SIC:v:l:s=vo	!	!LO:SIC:v:l:s=vo	!
4F#\	6	.	.	.	.	.	.	.	.	12f#\L	uo-	12dd\L	uo-
.	.	.	.	.	.	.	.	.	.	12g\	.	12ee\	.
.	.	.	.	.	.	.	.	.	.	12a\J	.	12ff#\J	.
4F#\	.	.	.	.	.	.	.	.	.	2f#\	.	2dd\	.
4F#\	.	.	.	.	.	.	.	.	.	.	.	.	.
!	!	!	!	!	!	!	!	!	!	!LO:LB:g=original	!	!	!
=114	=114	=114	=114	=114	=114	=114	=114	=114	=114	=114	=114	=114	=114
!	!	!	!	!	!	!	!	!	!	!LO:TUP:a:problem=klamra łukowa	!	!	!
4G\	7	.	.	.	.	.	.	.	.	12f#\L	.	12dd\L	.
.	.	.	.	.	.	.	.	.	.	12g\	.	12ee\	.
.	.	.	.	.	.	.	.	.	.	12a\J	.	12ff#\J	.
4G\	.	.	.	.	.	.	.	.	.	2f#\	.	2dd\	.
4G\	.	.	.	.	.	.	.	.	.	.	.	.	.
!LO:LB:g=original	!	!	!	!	!	!	!	!	!	!	!	!	!
=115	=115	=115	=115	=115	=115	=115	=115	=115	=115	=115	=115	=115	=115
!	!	!LO:N:vis=00	!	!LO:N:vis=00	!	!LO:N:vis=00	!	!LO:N:vis=00	!	!LO:TUP:a:problem=klamra łukowa	!	!	!
4A\	6 4	0.r	.	0.r	.	0.r	.	0.r	.	12f#\L	.	12dd\L	.
.	.	.	.	.	.	.	.	.	.	12g\	.	12ee\	.
.	.	.	.	.	.	.	.	.	.	12a\J	.	12ff#\J	.
4A\	.	.	.	.	.	.	.	.	.	2f#\	-let	2dd\	-let
4A\	.	.	.	.	.	.	.	.	.	.	.	.	.
=116	=116	=116	=116	=116	=116	=116	=116	=116	=116	=116	=116	=116	=116
4B\	.	.	.	.	.	.	.	.	.	8f#\L	ni-	8dd\L	ni-
.	.	.	.	.	.	.	.	.	.	8e\J	.	8cc#\J	.
4B\	.	.	.	.	.	.	.	.	.	2f#\	-mis	4dd\	-mis
4B\	.	.	.	.	.	.	.	.	.	.	.	4r	.
!	!	!	!	!	!	!	!	!	!	!	!	!LO:LB:g=original	!
=117	=117	=117	=117	=117	=117	=117	=117	=117	=117	=117	=117	=117	=117
!	!	!	!	!	!	!	!	!	!	!LO:TUP:a:problem=klamra łukowa	!	!	!
!	!	!	!	!	!	!	!	!	!	!LO:SIC:v:l:s=vo	!	!LO:SIC:v:l:s=vo	!
4G\	6	.	.	.	.	.	.	.	.	12g\L	uo-	12ee\L	uo-
.	.	.	.	.	.	.	.	.	.	12a\	.	12ff#\	.
.	.	.	.	.	.	.	.	.	.	12b\J	.	12gg\J	.
4G\	.	.	.	.	.	.	.	.	.	2g\	.	2ee\	.
4G\	.	.	.	.	.	.	.	.	.	.	.	.	.
!	!	!	!	!	!	!	!	!	!	!LO:LB:g=original	!	!	!
=118	=118	=118	=118	=118	=118	=118	=118	=118	=118	=118	=118	=118	=118
.	n7	.	.	.	.	.	.	.	.	.	.	.	.
*	*below	*	*	*	*	*	*	*	*	*	*	*	*
!	!	!	!	!	!	!	!	!	!	!LO:TUP:a:problem=klamra łukowa	!	!	!
4A\	5	.	.	.	.	.	.	.	.	12g\L	.	12ee\L	.
.	.	.	.	.	.	.	.	.	.	12a\	.	12ff#\	.
.	.	.	.	.	.	.	.	.	.	12b\J	.	12gg\J	.
4A\	.	.	.	.	.	.	.	.	.	2g\	.	2ee\	.
4A\	.	.	.	.	.	.	.	.	.	.	.	.	.
=119	=119	=119	=119	=119	=119	=119	=119	=119	=119	=119	=119	=119	=119
!	!	!LO:N:vis=00	!	!LO:N:vis=00	!	!LO:N:vis=00	!	!LO:N:vis=00	!	!LO:TUP:a:problem=klamra łukowa	!	!	!
4B\	6 4	0.r	.	0.r	.	0.r	.	0.r	.	12g\L	.	12ee\L	.
.	.	.	.	.	.	.	.	.	.	12a\	.	12ff#\	.
.	.	.	.	.	.	.	.	.	.	12b\J	.	12gg\J	.
4B\	.	.	.	.	.	.	.	.	.	2g\	-let	2ee\	-let
4B\	.	.	.	.	.	.	.	.	.	.	.	.	.
!LO:LB:g=original	!	!	!	!	!	!	!	!	!	!	!	!	!
=120	=120	=120	=120	=120	=120	=120	=120	=120	=120	=120	=120	=120	=120
4B-X\	#6 3	.	.	.	.	.	.	.	.	2.g#X\	ni-	2.dd\	ni-
4B-\	.	.	.	.	.	.	.	.	.	.	.	.	.
4B-\	.	.	.	.	.	.	.	.	.	.	.	.	.
!	!	!	!	!	!	!	!	!	!	!	!	!LO:LB:g=original	!
=121	=121	=121	=121	=121	=121	=121	=121	=121	=121	=121	=121	=121	=121
8A\L	.	.	.	.	.	.	.	.	.	4a\	-mis	4cc#\	-mis
8Bn\	.	.	.	.	.	.	.	.	.	.	.	.	.
8c#X\	.	.	.	.	.	.	.	.	.	4r	.	4r	.
8B\	.	.	.	.	.	.	.	.	.	.	.	.	.
8A\	.	.	.	.	.	.	.	.	.	4r	.	4r	.
8G#X\J	.	.	.	.	.	.	.	.	.	.	.	.	.
!	!	!	!	!	!	!	!	!	!	!LO:LB:g=original	!	!	!
=122	=122	=122	=122	=122	=122	=122	=122	=122	=122	=122	=122	=122	=122
*	*above	*	*	*	*	*	*	*	*	*	*	*	*
4A\	5 3	.	.	.	.	.	.	.	.	8e\L	Be-	8cc#\L	be-
.	.	.	.	.	.	.	.	.	.	8f#\J	.	8dd\J	.
4A\	.	.	.	.	.	.	.	.	.	8gn\L	-a-	8ee\L	-a-
.	.	.	.	.	.	.	.	.	.	8e\J	.	8cc#\J	.
4A\	.	.	.	.	.	.	.	.	.	8d\L	-tus	8b\L	-tus
.	.	.	.	.	.	.	.	.	.	8e\J	.	8cc#\J	.
=123	=123	=123	=123	=123	=123	=123	=123	=123	=123	=123	=123	=123	=123
!	!	!	!	!	!	!	!	!	!	!LO:SIC:v:l:s=vir	!	!	!
.	.	.	.	.	.	.	.	.	.	8qqg/	.	8qqee/	.
!	!	!LO:N:vis=00	!	!LO:N:vis=00	!	!LO:N:vis=00	!	!LO:N:vis=00	!	!	!	!	!
4A\	6 4	0.r	.	0.r	.	0.r	.	0.r	.	2.f#\	uir	2.dd\	vir
4A\	.	.	.	.	.	.	.	.	.	.	.	.	.
4A\	.	.	.	.	.	.	.	.	.	.	.	.	.
!LO:LB:g=original	!	!	!	!	!	!	!	!	!	!	!	!	!
=124	=124	=124	=124	=124	=124	=124	=124	=124	=124	=124	=124	=124	=124
4A\	6 4	.	.	.	.	.	.	.	.	8f#\L	Be-	8dd\L	Be-
.	.	.	.	.	.	.	.	.	.	8g\J	.	8ee\J	.
4A\	.	.	.	.	.	.	.	.	.	8a\L	-a-	8ff#\L	-a-
.	.	.	.	.	.	.	.	.	.	8f#\	.	8dd\	.
4A\	.	.	.	.	.	.	.	.	.	8e\	[[-tus]]	8cc#\	.
.	.	.	.	.	.	.	.	.	.	8f#\J	.	8dd\J	.
!	!	!	!	!	!	!	!	!	!	!	!	!LO:LB:g=original	!
=125	=125	=125	=125	=125	=125	=125	=125	=125	=125	=125	=125	=125	=125
.	.	.	.	.	.	.	.	.	.	.	.	8qqdd/	.
*	*below	*	*	*	*	*	*	*	*	*	*	*	*
4A\	7 5 3	.	.	.	.	.	.	.	.	2.g\	.	[<2.ee\	.
4A\	.	.	.	.	.	.	.	.	.	.	.	.	.
4A\	.	.	.	.	.	.	.	.	.	.	.	.	.
!	!	!	!	!	!	!	!	!	!	!LO:LB:g=original	!	!	!
=126	=126	=126	=126	=126	=126	=126	=126	=126	=126	=126	=126	=126	=126
4A\	.	.	.	.	.	.	.	.	.	8g\L	.	8ee\L]	.
*	*above	*	*	*	*	*	*	*	*	*	*	*	*
.	7	.	.	.	.	.	.	.	.	8a\	.	8ff#\	.
4A\	.	.	.	.	.	.	.	.	.	8b\	.	8gg\	.
.	.	.	.	.	.	.	.	.	.	8g\	.	8ee\	.
4A\	.	.	.	.	.	.	.	.	.	8f#\	.	8dd\	.
.	.	.	.	.	.	.	.	.	.	8g\J	.	8ee\J	.
=127	=127	=127	=127	=127	=127	=127	=127	=127	=127	=127	=127	=127	=127
!	!	!LO:N:vis=00	!	!LO:N:vis=00	!	!LO:N:vis=00	!	!LO:N:vis=00	!	!	!	!	!
4D\	.	0.r	.	0.r	.	0.r	.	0.r	.	4a\	.	4ff#\	.
4E\	.	.	.	.	.	.	.	.	.	4g\	.	4gg\	.
4F#\	.	.	.	.	.	.	.	.	.	4f#\	.	4aa\	.
=128	=128	=128	=128	=128	=128	=128	=128	=128	=128	=128	=128	=128	=128
4G\	.	.	.	.	.	.	.	.	.	8e\L	.	8b\L	.
.	.	.	.	.	.	.	.	.	.	8g\J	.	8ee\J	.
4A\	6 4	.	.	.	.	.	.	.	.	4f#\	.	4dd\	.
4AA/	5 3	.	.	.	.	.	.	.	.	4e\	-tus	4cc#\	-tus
!LO:LB:g=original	!	!	!	!	!	!	!	!	!	!	!	!LO:LB:g=original	!
=129	=129	=129	=129	=129	=129	=129	=129	=129	=129	=129	=129	=129	=129
!	!	!	!	!	!	!	!	!	!	!LO:SIC:v:l:s=vir	!	!LO:SIC:v:l:s=vir	!
4D\	.	.	.	.	.	.	.	.	.	(4f#\	uir	(4dd\	uir
4r	.	.	.	.	.	.	.	.	.	4g\)	.	4ee\)	.
4d\	.	.	.	.	.	.	.	.	.	4a\	be-	4ff#\	be-
!	!	!	!	!	!	!	!	!	!	!LO:LB:g=original	!	!	!
=130	=130	=130	=130	=130	=130	=130	=130	=130	=130	=130	=130	=130	=130
!	!	!	!	!	!	!	!	!	!	!LO:TUP:a:problem=klamra łukowa	!	!	!
4G\	.	.	.	.	.	.	.	.	.	12b\L	-a-	(12gg\L	-a-
.	.	.	.	.	.	.	.	.	.	12a\	.	12ff#\	.
.	.	.	.	.	.	.	.	.	.	12g\J	.	12ee\J)	.
4A\	6 4	.	.	.	.	.	.	.	.	2a\	-tus	4ff#\	.
4AA/	5 3	.	.	.	.	.	.	.	.	.	.	4ee\	-tus
!	!	!	!	!LO:LB:g=original	!	!	!	!	!	!	!	!	!
=131	=131	=131	=131	=131	=131	=131	=131	=131	=131	=131	=131	=131	=131
!	!	!	!	!	!	!	!	!	!	!LO:SIC:v:l:s=vir	!	!LO:SIC:v:l:s=vir	!
4D\	.	4d\	Be-	4f#\	Be-	4a\	Be-	4dd\	Be-	4d\	uir	4dd\	uir
!LO:TX:a:t=tutti	!	!	!	!	!	!	!	!	!	!	!	!	!
4D\	.	4d\	-a-	4f#\	-a-	4a\	-a-	4dd\	-a-	4r	.	4r	.
4D\	.	4d\	-tus	4f#\	-tus	4a\	-tus	4dd\	-tus	4r	.	4r	.
=132	=132	=132	=132	=132	=132	=132	=132	=132	=132	=132	=132	=132	=132
!	!	!LO:SIC:v:l:s=vir	!	!LO:SIC:v:l:s=vir	!	!LO:SIC:v:l:s=vir	!	!LO:SIC:v:l:s=vir	!	!LO:TX:b:t=24	!	!LO:TX:b:t=24	!
!	!	!	!	!	!	!	!	!	!	!LO:N:vis=00	!	!LO:N:vis=00	!
2D\	.	2d\	uir	2.f#\	uir	2.a\	uir	2.dd\	uir	0.r	.	0.r	.
4r	.	4r	.	.	.	.	.	.	.	.	.	.	.
!	!	!	!	!	!	!LO:LB:g=original	!	!	!	!	!	!	!
=133	=133	=133	=133	=133	=133	=133	=133	=133	=133	=133	=133	=133	=133
4B\	5	4B\	Be-	4f#\	be-	4b\	Be-	4dd\	Be-	.	.	.	.
4B\	.	4B\	-a-	4f#\	-a-	4b\	-a-	4dd\	-a-	.	.	.	.
4B\	.	4B\	-tus	4f#\	-tus	4b\	-tus	4dd\	-tus	.	.	.	.
!LO:LB:g=original	!	!LO:LB:g=original	!	!	!	!	!	!LO:LB:g=original	!	!	!	!	!
=134	=134	=134	=134	=134	=134	=134	=134	=134	=134	=134	=134	=134	=134
!	!	!LO:SIC:v:l:s=vir	!	!LO:SIC:v:l:s=vir	!	!LO:SIC:v:l:s=vir	!	!LO:SIC:v:l:s=vir	!	!	!	!	!
2.B\	.	2.B\	uir	2.f#\	uir	2.b\	uir	2.dd\	uir	.	.	.	.
=135	=135	=135	=135	=135	=135	=135	=135	=135	=135	=135	=135	=135	=135
!	!	!LO:SIC:v:l:s=qui	!	!LO:SIC:v:l:s=qui	!	!LO:SIC:v:l:s=qui	!	!LO:SIC:v:l:s=qui	!	!	!	!	!
2.Gn\	.	2.G\	qvi	2.g\	qvi	2.b\	qvi	2.dd\	qvi	.	.	.	.
!	!	!	!	!LO:LB:g=original	!	!	!	!	!	!	!	!	!
=136	=136	=136	=136	=136	=136	=136	=136	=136	=136	=136	=136	=136	=136
!	!	!	!	!	!	!	!	!	!	!LO:N:vis=00	!	!LO:N:vis=00	!
4F#\	6	(4F#\	ti-	(4d\	ti-	(4a\	ti-	2dd\	ti-	0.r	.	0.r	.
4E\	.	4E\)	.	4e\)	.	4g\)	.	.	.	.	.	.	.
4D\	.	4D\	-met	4f#\	-met	4f#\	-met	4dd\	-met	.	.	.	.
=137	=137	=137	=137	=137	=137	=137	=137	=137	=137	=137	=137	=137	=137
4G\	.	4G\	do-	2e\	do-	4b\	do-	4dd\	do-	.	.	.	.
2A\	.	2A\	-mi-	.	.	2e\	-mi-	2cc#\	-mi-	.	.	.	.
.	.	.	.	4e\	-mi-	.	.	.	.	.	.	.	.
!	!	!	!	!	!	!LO:PB:g=original	!	!	!	!	!	!	!
=138	=138	=138	=138	=138	=138	=138	=138	=138	=138	=138	=138	=138	=138
4D\	.	4D\	-num	4f#\	-num	4f#\	-nu(m)	2dd\	-num	.	.	.	.
4d\	.	4d\	in	4f#\	in	4a\	in	.	.	.	.	.	.
4d\	.	4d\	man-	4f#\	man-	4a\	man-	4r	.	.	.	.	.
!LO:LB:g=original	!	!LO:PB:g=original	!	!	!	!	!	!	!	!	!	!	!
=139	=139	=139	=139	=139	=139	=139	=139	=139	=139	=139	=139	=139	=139
!	!	!	!	!	!	!	!	!LO:TX:b:t=1	!	!	!	!	!
4c#\	6	(4c#\	-da-	(4e\	-da-	2.a\	-da-	2.r	.	.	.	.	.
4B\	.	4B\)	.	4d\)	.	.	.	.	.	.	.	.	.
4c#\	.	4c#\	-tis	4e\	-tis	.	.	.	.	.	.	.	.
!	!	!	!	!LO:PB:g=original	!	!	!	!LO:LB:g=original	!	!	!	!	!
=140	=140	=140	=140	=140	=140	=140	=140	=140	=140	=140	=140	=140	=140
!	!	!	!	!	!	!	!	!	!	!LO:N:vis=00	!	!LO:N:vis=00	!
4A\	.	(4A\	e-	(4c#\	e-	2.a\	-tis	2dd\	in	0.r	.	0.r	.
4B\	.	4B\)	.	4d\)	.	.	.	.	.	.	.	.	.
4c#\	.	4c#\	-ius	4e\	-ius	.	.	4ee\	man-	.	.	.	.
=141	=141	=141	=141	=141	=141	=141	=141	=141	=141	=141	=141	=141	=141
!	!	!LO:SIC:v:l:s=vo	!	!LO:SIC:v:l:s=vo	!	!	!	!	!	!	!	!	!
4d\	.	4d\	uo-	4d\	uo-	2.a\	e-	(4ff#\	-da-	.	.	.	.
4D\	.	4D\	-let	4A\	-let	.	.	4ee\)	.	.	.	.	.
4r	.	4r	.	4r	.	.	.	4ff#\	-tis	.	.	.	.
=142	=142	=142	=142	=142	=142	=142	=142	=142	=142	=142	=142	=142	=142
2d\	.	2d\	in	2f#\	in	2.a\	-ius	(4dd\	e-	.	.	.	.
.	.	.	.	.	.	.	.	4ee\)	.	.	.	.	.
4d\	.	4d\	man-	4f#\	man-	.	.	4ff#\	-ius	.	.	.	.
=143	=143	=143	=143	=143	=143	=143	=143	=143	=143	=143	=143	=143	=143
!	!	!	!	!	!	!LO:SIC:v:l:s=vo	!	!LO:SIC:v:l:s=vo	!	!	!	!	!
4c#\	6	(4c#\	-da-	(4e\	-da-	2.a\	uo-	4ee\	uo-	.	.	.	.
4B\	.	4B\)	.	4d\)	.	.	.	4ee\	-let	.	.	.	.
4c#\	.	4c#\	-tis	4e\	-tis	.	.	4r	.	.	.	.	.
!LO:LB:g=original	!	!LO:LB:g=original	!	!	!	!LO:LB:g=original	!	!LO:PB:g=original	!	!	!	!	!
=144	=144	=144	=144	=144	=144	=144	=144	=144	=144	=144	=144	=144	=144
!	!	!	!	!	!	!	!	!LO:SIC:v:l:s=vo	!	!LO:N:vis=00	!	!LO:N:vis=00	!
4A\	.	(4A\	e-	(4c#\	e-	2.a\	-let	2ee\	uo-	0.r	.	0.r	.
4B\	.	4B\)	.	4d\)	.	.	.	.	.	.	.	.	.
4c#\	.	4c#\	-ius	4e\	-ius	.	.	4ee\	-let	.	.	.	.
!	!	!	!	!LO:LB:g=original	!	!	!	!	!	!	!	!	!
=145	=145	=145	=145	=145	=145	=145	=145	=145	=145	=145	=145	=145	=145
*	*	*	*	*	*	*	*	*Xtuplet	*	*	*	*	*
!	!	!LO:SIC:v:l:s=vo	!	!LO:SIC:v:l:s=vo	!	!	!	!LO:TUP:problem=klamra łukowa	!	!	!	!	!
4d\	.	4d\	uo-	4d\	uo-	4a\	ni-	12ff#\L	ni-	.	.	.	.
.	.	.	.	.	.	.	.	12ee\	.	.	.	.	.
.	.	.	.	.	.	.	.	12ff#\J	.	.	.	.	.
4D\	.	4D\	-let	4A\	-let	4a\	-mis	4dd\	-mis	.	.	.	.
4r	.	4r	.	4r	.	4r	.	4r	.	.	.	.	.
=146	=146	=146	=146	=146	=146	=146	=146	=146	=146	=146	=146	=146	=146
!	!	!LO:SIC:v:l:s=vo	!	!LO:SIC:v:l:s=vo	!	!LO:SIC:v:l:s=vo	!	!LO:SIC:v:l:s=vo	!	!	!	!	!
2.d\	.	2.d\	uo-	2.f#\	uo-	2.a\	uo-	2.dd\	uo-	.	.	.	.
=147	=147	=147	=147	=147	=147	=147	=147	=147	=147	=147	=147	=147	=147
2.B\	.	2.B\	-let	2.f#\	-let	2.b\	-let	2.dd\	-let	.	.	.	.
=148	=148	=148	=148	=148	=148	=148	=148	=148	=148	=148	=148	=148	=148
!	!	!LO:SIC:v:l:s=vo	!	!LO:SIC:v:l:s=vo	!	!LO:SIC:v:l:s=vo	!	!LO:SIC:v:l:s=vo	!	!LO:N:vis=00	!	!LO:N:vis=00	!
4G\	.	(4G\	uo-	2g\	uo-	(4b\	uo-	2dd\	uo-	0.r	.	0.r	.
4A\	.	4A\)	.	.	.	4a\)	.	.	.	.	.	.	.
4B\	.	4B\	-let	4g\	-let	4g\	-let	4dd\	-let	.	.	.	.
!	!	!LO:LB:g=original	!	!	!	!	!	!LO:LB:g=original	!	!	!	!	!
=149	=149	=149	=149	=149	=149	=149	=149	=149	=149	=149	=149	=149	=149
*	*below	*	*	*	*	*	*	*	*	*	*	*	*
2.A\	4	2.A\	ni-	2.e\	ni-	2.a\	ni-	4dd\	ni-	.	.	.	.
.	3	.	.	.	.	.	.	2cc#\	.	.	.	.	.
!	!	!	!	!LO:LB:g=original	!	!LO:LB:g=original	!	!	!	!	!	!	!
=150	=150	=150	=150	=150	=150	=150	=150	=150	=150	=150	=150	=150	=150
4D\	.	2.D\	-mis	2.f#\	-mis	2.a\	-mis	2.dd\	-mis	.	.	.	.
4F#\	.	.	.	.	.	.	.	.	.	.	.	.	.
4A\	.	.	.	.	.	.	.	.	.	.	.	.	.
!LO:PB:g=original	!	!	!	!	!	!	!	!	!	!	!	!	!
=151	=151	=151	=151	=151	=151	=151	=151	=151	=151	=151	=151	=151	=151
!	!	!LO:SIC:v:l:s=vo	!	!LO:SIC:v:l:s=vo	!	!LO:SIC:v:l:s=vo	!	!LO:SIC:v:l:s=vo	!	!	!	!	!
2.d\	.	2.d\	uo-	2.f#\	uo-	2.a\	uo-	2.dd\	uo-	.	.	.	.
=152	=152	=152	=152	=152	=152	=152	=152	=152	=152	=152	=152	=152	=152
!	!	!	!	!	!	!	!	!	!	!LO:N:vis=00	!	!LO:N:vis=00	!
2.B\	5	2.B\	-let	2.f#\	-let	2.b\	-let	2.dd\	-let	0.r	.	0.r	.
=153	=153	=153	=153	=153	=153	=153	=153	=153	=153	=153	=153	=153	=153
!	!	!LO:SIC:v:l:s=vo	!	!LO:SIC:v:l:s=vo	!	!LO:SIC:v:l:s=vo	!	!LO:SIC:v:l:s=vo	!	!	!	!	!
4G\	.	(4G\	uo-	2g\	uo-	2b\	uo-	2dd\	uo-	.	.	.	.
4A\	.	4A\)	.	.	.	.	.	.	.	.	.	.	.
4B\	.	4B\	-let	4g\	-let	4g\	-let	4dd\	-let	.	.	.	.
!	!	!	!	!LO:LB:g=original	!	!	!	!LO:LB:g=original	!	!	!	!	!
=154	=154	=154	=154	=154	=154	=154	=154	=154	=154	=154	=154	=154	=154
2.A\	4	2.A\	ni-	2.e\	ni-	2.a\	ni-	4dd\	ni-	.	.	.	.
.	3	.	.	.	.	.	.	2cc#\	.	.	.	.	.
=155	=155	=155	=155	=155	=155	=155	=155	=155	=155	=155	=155	=155	=155
!	!	!	!	!	!	!LO:TX:a:t=P:problem=pojedyncza kreska taktowa	!	!	!	!	!	!LO:TX:a:t=P:problem=pojedyncza kreska taktowa	!
2D\	.	2D\	-mis	2f#\	-mis	2.a\	-mis	2dd\	-mis	.	.	.	.
4r	.	4r	.	4r	.	.	.	4r	.	.	.	.	.
==	==	==	==	==	==	==	==	==	==	==	==	==	==
*-	*-	*-	*-	*-	*-	*-	*-	*-	*-	*-	*-	*-	*-
!!!system-decoration: [g1][g2]s7
!!!RDF**kern: < = below
!!!ENC: Marta Lawrence
!!!END: 2021-03-30
!!!ENC: Kamil Watkowski
!!!END: 2021-03-17
!!!YEC: Copyright 2022 Narodowy Instytut Fryderyka Chopina (https://polishscores.org)
!!!YEM: Licence CC BY 4.0 (https://creativecommons.org/licenses/by/4.0)
